X: 22842
T: Lark In The Morning, The
R: jig
M: 6/8
K: Dmajor
AFA AdB|AFA D3|DFA gfe|fed edB|
AFA AdB|AFA D2f|gfe fed|edA B/c/dB:|
|:Adf ~a3|abf ~a3|Adf ~a2 f|gfe fdB|
Adf ~a3|abf ~a2f|gfe fed|edA B/c/dB:|

